;FLAVOR:Marlin
;TIME:4152
;Filament used: 2.59754m
;Layer height: 0.2
;MINX:72.095
;MINY:93.226
;MINZ:0.3
;MAXX:137.907
;MAXY:118.769
;MAXZ:33.775
;Generated with Cura_SteamEngine 4.11.0
M82 ;absolute extrusion mode
G21                                        ; metric values 
G90                                        ; absolute positioning 
M82                                        ; set extruder to absolute mode 
M107                                       ; start with the fan off 
M140 S60           ; Start heating the bed 
G4 S60                                     ; wait 1 minute 
M104 S220.0         ; start heating the hot end 
M190 S60           ; wait for bed 
M109 S220.0         ; wait for hotend 
M300 S1000 P500                            ; BEEP heating done 
G28 X0 Y10 Z0                              ; move X/Y to min endstops 
M420 S1                                    ; Enable leveling 
M420 Z2.0                                  ; Set leveling fading height to 2 mm 
G0 Z0.15                                   ; lift nozzle a bit 
G92 E0                                     ; zero the extruded length 
G1 X50 E25 F500                            ; Extrude 25mm of filament in a 5cm line. 
G92 E0                                     ; zero the extruded length again 
G1 E-2 F500                                ; Retract a little 
G1 X120 F4000                              ; Quickly wipe away from the filament line`
G92 E0
G92 E0
G1 F1500 E-6
;LAYER_COUNT:168
;LAYER:0
M106 S76.5
M205 X10 Y10
G1 F600 Z0.375
G0 F6000 X74.566 Y94.591 Z0.375
M205 X8 Y8
;TYPE:SKIRT
G1 F600 Z0.3
G1 F1500 E0
G1 F1200 X75.154 Y94.183 E0.03571
G1 X75.783 Y93.843 E0.07138
G1 X76.447 Y93.576 E0.10708
G1 X77.136 Y93.384 E0.14277
G1 X77.842 Y93.27 E0.17845
G1 X78.637 Y93.229 E0.21816
G1 X78.833 Y93.226 E0.22794
G1 X97.893 Y93.229 E1.17885
G1 X98.595 Y93.24 E1.21388
G1 X99.309 Y93.291 E1.24959
G1 X100.012 Y93.421 E1.28525
G1 X100.696 Y93.629 E1.32092
G1 X101.048 Y93.77 E1.33984
G1 X102.035 Y94.199 E1.39353
G1 X104.548 Y95.25 E1.52943
G1 X107.02 Y96.205 E1.66164
G1 X109.5 Y97.078 E1.79281
G1 X112.003 Y97.884 E1.924
G1 X114.579 Y98.632 E2.05783
G1 X117.128 Y99.296 E2.18924
G1 X119.686 Y99.886 E2.32021
G1 X122.304 Y100.413 E2.45344
G1 X124.911 Y100.858 E2.58539
G1 X127.524 Y101.23 E2.71707
G1 X130.148 Y101.529 E2.84882
G1 X131.332 Y101.631 E2.90811
G1 X132.129 Y101.71 E2.94807
G1 X132.836 Y101.82 E2.98377
G1 X133.526 Y102.009 E3.01946
G1 X134.191 Y102.273 E3.05516
G1 X134.822 Y102.61 E3.09084
G1 X135.411 Y103.015 E3.12651
G1 X135.952 Y103.483 E3.16219
G1 X136.437 Y104.009 E3.19789
G1 X136.86 Y104.585 E3.23354
G1 X137.217 Y105.205 E3.26924
G1 X137.502 Y105.862 E3.30497
G1 X137.712 Y106.545 E3.34061
G1 X137.844 Y107.248 E3.3763
G1 X137.895 Y107.9 E3.40893
G1 X137.907 Y108.4 E3.43388
G1 X137.907 Y111.711 E3.59907
G1 X137.898 Y112.438 E3.63534
G1 X137.849 Y113.152 E3.67105
G1 X137.721 Y113.856 E3.70674
G1 X137.515 Y114.541 E3.74243
G1 X137.234 Y115.198 E3.77808
G1 X136.881 Y115.821 E3.8138
G1 X136.461 Y116.4 E3.84949
G1 X135.979 Y116.928 E3.88516
G1 X135.442 Y117.4 E3.92083
G1 X134.854 Y117.808 E3.95653
G1 X134.225 Y118.149 E3.99223
G1 X133.562 Y118.417 E4.02791
G1 X132.873 Y118.609 E4.06359
G1 X132.167 Y118.724 E4.09928
G1 X131.382 Y118.765 E4.13849
G1 X131.193 Y118.768 E4.14792
G1 X79.111 Y118.769 E6.74631
G1 X78.412 Y118.759 E6.78118
G1 X77.699 Y118.709 E6.81684
G1 X76.996 Y118.58 E6.8525
G1 X76.311 Y118.373 E6.8882
G1 X75.654 Y118.09 E6.92389
G1 X75.032 Y117.736 E6.9596
G1 X74.454 Y117.315 E6.99527
G1 X73.926 Y116.833 E7.03094
G1 X73.456 Y116.294 E7.06662
G1 X73.048 Y115.706 E7.10232
G1 X72.709 Y115.076 E7.13802
G1 X72.442 Y114.413 E7.17367
G1 X72.251 Y113.723 E7.20939
G1 X72.138 Y113.017 E7.24506
G1 X72.098 Y112.234 E7.28418
G1 X72.095 Y112.049 E7.29341
G1 X72.096 Y100.214 E7.88386
G1 X72.105 Y99.549 E7.91704
G1 X72.154 Y98.836 E7.9527
G1 X72.283 Y98.132 E7.9884
G1 X72.49 Y97.448 E8.02406
G1 X72.772 Y96.79 E8.05977
G1 X73.125 Y96.168 E8.09545
G1 X73.545 Y95.59 E8.1311
G1 X74.028 Y95.062 E8.1668
G1 X74.566 Y94.591 E8.20247
M205 X10 Y10
G0 F6000 X74.953 Y94.8
M205 X8 Y8
G1 F1200 X75.534 Y94.423 E8.23703
G1 X76.154 Y94.115 E8.27157
G1 X76.806 Y93.881 E8.30613
G1 X77.48 Y93.724 E8.34065
G1 X78.321 Y93.639 E8.38282
G1 X78.833 Y93.626 E8.40837
G1 X97.887 Y93.629 E9.35898
G1 X98.589 Y93.64 E9.39401
G1 X99.28 Y93.691 E9.42858
G1 X99.96 Y93.821 E9.46312
G1 X100.889 Y94.137 E9.51207
G1 X101.871 Y94.564 E9.5655
G1 X104.398 Y95.621 E9.70215
G1 X106.88 Y96.579 E9.83489
G1 X109.36 Y97.453 E9.96607
G1 X111.906 Y98.272 E10.0995
G1 X114.472 Y99.018 E10.23282
G1 X117.001 Y99.676 E10.36319
G1 X119.631 Y100.282 E10.49784
G1 X122.256 Y100.811 E10.63144
G1 X124.829 Y101.25 E10.76166
G1 X127.489 Y101.629 E10.89571
G1 X130.106 Y101.927 E11.02711
G1 X131.293 Y102.029 E11.08655
G1 X132.09 Y102.108 E11.12651
G1 X132.774 Y102.216 E11.16106
G1 X133.441 Y102.402 E11.1956
G1 X134.082 Y102.664 E11.23015
G1 X134.689 Y102.998 E11.26472
G1 X135.253 Y103.399 E11.29924
G1 X135.767 Y103.863 E11.33379
G1 X136.225 Y104.383 E11.36836
G1 X136.619 Y104.953 E11.40293
G1 X136.945 Y105.563 E11.43744
G1 X137.199 Y106.208 E11.47202
G1 X137.376 Y106.877 E11.50655
G1 X137.476 Y107.563 E11.54113
G1 X137.505 Y108.232 E11.57454
G1 X137.507 Y108.4 E11.58292
G1 X137.507 Y111.706 E11.74786
G1 X137.498 Y112.433 E11.78413
G1 X137.449 Y113.124 E11.81869
G1 X137.321 Y113.805 E11.85326
G1 X137.116 Y114.466 E11.88779
G1 X136.836 Y115.099 E11.92232
G1 X136.484 Y115.696 E11.9569
G1 X136.067 Y116.249 E11.99145
G1 X135.588 Y116.749 E12.026
G1 X135.055 Y117.191 E12.06054
G1 X134.474 Y117.569 E12.09512
G1 X133.854 Y117.877 E12.12966
G1 X133.203 Y118.112 E12.16419
G1 X132.528 Y118.27 E12.19878
G1 X131.675 Y118.356 E12.24155
G1 X131.193 Y118.368 E12.2656
G1 X79.117 Y118.369 E14.86369
G1 X78.418 Y118.359 E14.89856
G1 X77.727 Y118.31 E14.93312
G1 X77.047 Y118.18 E14.96766
G1 X76.386 Y117.974 E15.00221
G1 X75.753 Y117.692 E15.03678
G1 X75.157 Y117.34 E15.07131
G1 X74.606 Y116.921 E15.10585
G1 X74.106 Y116.441 E15.14043
G1 X73.665 Y115.907 E15.17498
G1 X73.289 Y115.326 E15.2095
G1 X72.981 Y114.706 E15.24404
G1 X72.748 Y114.054 E15.27859
G1 X72.591 Y113.379 E15.31316
G1 X72.507 Y112.534 E15.35553
G1 X72.495 Y112.049 E15.37973
G1 X72.496 Y100.22 E15.96988
G1 X72.505 Y99.555 E16.00306
G1 X72.554 Y98.864 E16.03762
G1 X72.682 Y98.184 E16.07214
G1 X72.889 Y97.522 E16.10675
G1 X73.17 Y96.889 E16.1413
G1 X73.522 Y96.293 E16.17583
G1 X73.94 Y95.741 E16.21038
G1 X74.419 Y95.241 E16.24492
G1 X74.953 Y94.8 E16.27947
M205 X10 Y10
G0 F6000 X74.809 Y95.428
M205 X8 Y8
G1 F1200 X75.338 Y95.017 E16.31289
G1 X75.911 Y94.672 E16.34626
G1 X76.522 Y94.399 E16.37965
G1 X77.16 Y94.2 E16.41299
G1 X77.818 Y94.078 E16.44638
G1 X78.333 Y94.039 E16.47215
G1 X78.833 Y94.026 E16.4971
G1 X97.881 Y94.029 E17.44741
G1 X98.583 Y94.04 E17.48244
G1 X99.25 Y94.09 E17.51581
G1 X99.906 Y94.22 E17.54917
G1 X100.729 Y94.504 E17.59261
G1 X101.765 Y94.955 E17.64898
G1 X104.216 Y95.98 E17.78152
G1 X106.757 Y96.961 E17.91741
G1 X109.209 Y97.824 E18.0471
G1 X111.778 Y98.651 E18.18174
G1 X114.374 Y99.405 E18.31661
G1 X116.916 Y100.067 E18.44766
G1 X119.534 Y100.671 E18.58171
G1 X122.181 Y101.204 E18.71642
G1 X124.771 Y101.646 E18.8475
G1 X127.424 Y102.024 E18.98119
G1 X130.063 Y102.324 E19.1137
G1 X131.253 Y102.427 E19.17329
G1 X132.05 Y102.506 E19.21325
G1 X132.711 Y102.612 E19.24665
G1 X133.354 Y102.796 E19.28002
G1 X133.971 Y103.055 E19.3134
G1 X134.553 Y103.386 E19.34681
G1 X135.091 Y103.783 E19.38016
G1 X135.577 Y104.242 E19.41351
G1 X136.006 Y104.756 E19.44692
G1 X136.37 Y105.318 E19.48032
G1 X136.664 Y105.918 E19.51366
G1 X136.885 Y106.55 E19.54706
G1 X137.029 Y107.203 E19.58042
G1 X137.096 Y107.922 E19.61645
G1 X137.107 Y108.4 E19.6403
G1 X137.107 Y111.701 E19.80499
G1 X137.098 Y112.428 E19.84126
G1 X137.049 Y113.096 E19.87468
G1 X136.922 Y113.752 E19.90801
G1 X136.717 Y114.389 E19.9414
G1 X136.438 Y114.997 E19.97477
G1 X136.088 Y115.567 E20.00814
G1 X135.672 Y116.092 E20.04156
G1 X135.197 Y116.563 E20.07493
G1 X134.67 Y116.974 E20.10828
G1 X134.097 Y117.32 E20.14167
G1 X133.487 Y117.594 E20.17503
G1 X132.848 Y117.794 E20.20844
G1 X132.19 Y117.916 E20.24183
G1 X131.663 Y117.957 E20.2682
G1 X131.193 Y117.968 E20.29165
G1 X79.123 Y117.969 E22.88943
G1 X78.424 Y117.959 E22.92431
G1 X77.757 Y117.91 E22.95768
G1 X77.1 Y117.781 E22.99108
G1 X76.464 Y117.575 E23.02443
G1 X75.856 Y117.295 E23.05783
G1 X75.287 Y116.944 E23.09118
G1 X74.763 Y116.527 E23.12459
G1 X74.293 Y116.051 E23.15797
G1 X73.883 Y115.523 E23.19132
G1 X73.538 Y114.949 E23.22473
G1 X73.265 Y114.338 E23.25812
G1 X73.067 Y113.7 E23.29145
G1 X72.946 Y113.042 E23.32482
G1 X72.906 Y112.522 E23.35084
G1 X72.895 Y112.049 E23.37445
G1 X72.896 Y100.225 E23.96435
G1 X72.905 Y99.56 E23.99753
G1 X72.954 Y98.893 E24.0309
G1 X73.082 Y98.236 E24.06429
G1 X73.287 Y97.6 E24.09763
G1 X73.567 Y96.992 E24.13102
G1 X73.918 Y96.422 E24.16442
G1 X74.334 Y95.898 E24.1978
G1 X74.809 Y95.428 E24.23114
M205 X10 Y10
G0 F6000 X75.198 Y95.622
M205 X8 Y8
G1 F1200 X75.721 Y95.244 E24.26333
G1 X76.285 Y94.933 E24.29546
G1 X76.884 Y94.695 E24.32762
G1 X77.508 Y94.532 E24.3598
G1 X78.346 Y94.438 E24.40187
G1 X78.833 Y94.426 E24.42617
G1 X97.874 Y94.429 E25.37613
G1 X98.576 Y94.44 E25.41116
G1 X99.219 Y94.49 E25.44333
G1 X99.851 Y94.619 E25.47551
G1 X100.569 Y94.871 E25.51348
G1 X101.575 Y95.308 E25.5682
G1 X104.067 Y96.351 E25.70297
G1 X106.607 Y97.332 E25.83882
G1 X109.114 Y98.214 E25.97141
G1 X111.68 Y99.04 E26.1059
G1 X114.233 Y99.782 E26.23854
G1 X116.83 Y100.458 E26.37242
G1 X119.436 Y101.059 E26.50584
G1 X122.1 Y101.595 E26.64142
G1 X124.719 Y102.042 E26.77397
G1 X127.363 Y102.419 E26.90721
G1 X130.051 Y102.725 E27.04218
G1 X131.214 Y102.825 E27.10042
G1 X132.011 Y102.904 E27.14038
G1 X132.647 Y103.008 E27.17253
G1 X133.266 Y103.189 E27.2047
G1 X133.857 Y103.445 E27.23683
G1 X134.413 Y103.773 E27.26904
G1 X134.923 Y104.166 E27.30116
G1 X135.381 Y104.62 E27.33334
G1 X135.779 Y105.127 E27.36549
G1 X136.111 Y105.68 E27.39767
G1 X136.373 Y106.269 E27.42983
G1 X136.559 Y106.886 E27.46198
G1 X136.668 Y107.522 E27.49418
G1 X136.705 Y108.254 E27.53074
G1 X136.707 Y108.4 E27.53803
G1 X136.707 Y111.696 E27.70247
G1 X136.698 Y112.423 E27.73874
G1 X136.65 Y113.066 E27.77091
G1 X136.523 Y113.698 E27.80307
G1 X136.318 Y114.31 E27.83527
G1 X136.04 Y114.891 E27.8674
G1 X135.692 Y115.434 E27.89958
G1 X135.279 Y115.929 E27.93174
G1 X134.808 Y116.369 E27.9639
G1 X134.286 Y116.748 E27.99608
G1 X133.722 Y117.059 E28.02821
G1 X133.123 Y117.298 E28.06039
G1 X132.5 Y117.462 E28.09253
G1 X131.651 Y117.557 E28.13515
G1 X131.193 Y117.568 E28.15801
G1 X79.129 Y117.569 E30.75549
G1 X78.43 Y117.559 E30.79037
G1 X77.787 Y117.51 E30.82254
G1 X77.155 Y117.382 E30.85471
G1 X76.544 Y117.176 E30.88688
G1 X75.963 Y116.897 E30.91903
G1 X75.421 Y116.548 E30.9512
G1 X74.927 Y116.134 E30.98335
G1 X74.487 Y115.662 E31.01555
G1 X74.11 Y115.14 E31.04767
G1 X73.799 Y114.575 E31.07985
G1 X73.561 Y113.976 E31.112
G1 X73.399 Y113.352 E31.14417
G1 X73.306 Y112.51 E31.18643
G1 X73.295 Y112.049 E31.20944
G1 X73.295 Y100.231 E31.79904
G1 X73.304 Y99.566 E31.83222
G1 X73.353 Y98.923 E31.86439
G1 X73.481 Y98.291 E31.89656
G1 X73.686 Y97.68 E31.92871
G1 X73.965 Y97.099 E31.96087
G1 X74.314 Y96.556 E31.99307
G1 X74.727 Y96.062 E32.0252
G1 X75.198 Y95.622 E32.05735
M205 X10 Y10
G1 F1500 E26.05735
G1 F600 Z0.375
;MESH:GBC PRO_18.stl(1)
G0 F6000 X78.695 Y99.826 Z0.375
M205 X8 Y8
;TYPE:WALL-OUTER
G1 F600 Z0.3
G1 F1500 E32.05735
G1 F1200 X98.295 Y99.828 E33.0352
G1 X98.294 Y109.57 E33.52123
G1 X121.845 Y109.569 E34.6962
G1 X123.144 Y108.27 E34.78785
G1 X131.307 Y108.27 E35.1951
G1 X131.307 Y112.168 E35.38957
G1 X78.694 Y112.17 E38.01445
G1 X78.695 Y99.826 E38.63029
M205 X10 Y10
G0 F6000 X78.895 Y99.826
G0 X79.085 Y100.216
M205 X8 Y8
;TYPE:SKIN
G1 F1200 X97.905 Y100.218 E39.56922
G1 X97.904 Y109.96 E40.05525
G1 X122.007 Y109.959 E41.25776
G1 X123.304 Y108.66 E41.34934
G1 X130.917 Y108.66 E41.72915
G1 X130.917 Y111.778 E41.88471
G1 X79.084 Y111.78 E44.47067
G1 X79.085 Y100.216 E45.0476
M205 X10 Y10
G1 F1500 E39.0476
G1 F600 Z0.375
G0 F6000 X79.355 Y111.599 Z0.375
M205 X8 Y8
G1 F600 Z0.3
G1 F1500 E45.0476
G1 F1200 X79.263 Y111.507 E45.05409
M205 X10 Y10
G0 F6000 X79.263 Y110.942
M205 X8 Y8
G1 F1200 X79.92 Y111.599 E45.10045
M205 X10 Y10
G0 F6000 X80.486 Y111.599
M205 X8 Y8
G1 F1200 X79.263 Y110.376 E45.18674
M205 X10 Y10
G0 F6000 X79.263 Y109.81
M205 X8 Y8
G1 F1200 X81.052 Y111.599 E45.31296
M205 X10 Y10
G0 F6000 X81.617 Y111.599
M205 X8 Y8
G1 F1200 X79.263 Y109.245 E45.47905
M205 X10 Y10
G0 F6000 X79.263 Y108.679
M205 X8 Y8
G1 F1200 X82.183 Y111.599 E45.68507
M205 X10 Y10
G0 F6000 X82.749 Y111.599
M205 X8 Y8
G1 F1200 X79.263 Y108.113 E45.93102
M205 X10 Y10
G0 F6000 X79.263 Y107.548
M205 X8 Y8
G1 F1200 X83.314 Y111.599 E46.21684
M205 X10 Y10
G0 F6000 X83.88 Y111.599
M205 X8 Y8
G1 F1200 X79.263 Y106.982 E46.5426
M205 X10 Y10
G0 F6000 X79.263 Y106.416
M205 X8 Y8
G1 F1200 X84.446 Y111.599 E46.90829
M205 X10 Y10
G0 F6000 X85.011 Y111.599
M205 X8 Y8
G1 F1200 X79.264 Y105.851 E47.3138
M205 X10 Y10
G0 F6000 X79.264 Y105.286
M205 X8 Y8
G1 F1200 X85.577 Y111.599 E47.75922
M205 X10 Y10
G0 F6000 X86.143 Y111.599
M205 X8 Y8
G1 F1200 X79.264 Y104.72 E48.24457
M205 X10 Y10
G0 F6000 X79.264 Y104.154
M205 X8 Y8
G1 F1200 X86.708 Y111.599 E48.76982
M205 X10 Y10
G0 F6000 X87.274 Y111.599
M205 X8 Y8
G1 F1200 X79.264 Y103.589 E49.33497
M205 X10 Y10
G0 F6000 X79.264 Y103.023
M205 X8 Y8
G1 F1200 X87.84 Y111.599 E49.94005
M205 X10 Y10
G0 F6000 X88.406 Y111.599
M205 X8 Y8
G1 F1200 X79.264 Y102.457 E50.58507
M205 X10 Y10
G0 F6000 X79.264 Y101.891
M205 X8 Y8
G1 F1200 X88.971 Y111.599 E51.26999
M205 X10 Y10
G0 F6000 X89.537 Y111.599
M205 X8 Y8
G1 F1200 X79.264 Y101.326 E51.9948
M205 X10 Y10
G0 F6000 X79.264 Y100.76
M205 X8 Y8
G1 F1200 X90.103 Y111.599 E52.75955
M205 X10 Y10
G0 F6000 X90.668 Y111.599
M205 X8 Y8
G1 F1200 X79.465 Y100.395 E53.55002
M205 X10 Y10
G0 F6000 X80.031 Y100.395
M205 X8 Y8
G1 F1200 X91.234 Y111.599 E54.34049
M205 X10 Y10
G0 F6000 X91.8 Y111.599
M205 X8 Y8
G1 F1200 X80.596 Y100.395 E55.13099
M205 X10 Y10
G0 F6000 X81.162 Y100.395
M205 X8 Y8
G1 F1200 X92.365 Y111.599 E55.92146
M205 X10 Y10
G0 F6000 X92.931 Y111.599
M205 X8 Y8
G1 F1200 X81.728 Y100.395 E56.71192
M205 X10 Y10
G0 F6000 X82.293 Y100.395
M205 X8 Y8
G1 F1200 X93.497 Y111.599 E57.50243
M205 X10 Y10
G0 F6000 X94.062 Y111.599
M205 X8 Y8
G1 F1200 X82.859 Y100.395 E58.29289
M205 X10 Y10
G0 F6000 X83.425 Y100.395
M205 X8 Y8
G1 F1200 X94.628 Y111.599 E59.08336
M205 X10 Y10
G0 F6000 X95.194 Y111.599
M205 X8 Y8
G1 F1200 X83.991 Y100.396 E59.87379
M205 X10 Y10
G0 F6000 X84.557 Y100.396
M205 X8 Y8
G1 F1200 X95.759 Y111.599 E60.66419
M205 X10 Y10
G0 F6000 X96.325 Y111.599
M205 X8 Y8
G1 F1200 X85.122 Y100.396 E61.45462
M205 X10 Y10
G0 F6000 X85.688 Y100.396
M205 X8 Y8
G1 F1200 X96.89 Y111.598 E62.24498
M205 X10 Y10
G0 F6000 X97.456 Y111.598
M205 X8 Y8
G1 F1200 X86.254 Y100.396 E63.03535
M205 X10 Y10
G0 F6000 X86.819 Y100.396
M205 X8 Y8
G1 F1200 X98.021 Y111.598 E63.82571
M205 X10 Y10
G0 F6000 X98.587 Y111.598
M205 X8 Y8
G1 F1200 X87.385 Y100.396 E64.61607
M205 X10 Y10
G0 F6000 X87.951 Y100.396
M205 X8 Y8
G1 F1200 X99.153 Y111.598 E65.40643
M205 X10 Y10
G0 F6000 X99.719 Y111.598
M205 X8 Y8
G1 F1200 X98.26 Y110.139 E65.50937
M205 X10 Y10
G0 F6000 X98.825 Y110.139
M205 X8 Y8
G1 F1200 X100.284 Y111.598 E65.61231
M205 X10 Y10
G0 F6000 X100.85 Y111.598
M205 X8 Y8
G1 F1200 X99.391 Y110.139 E65.71525
M205 X10 Y10
G0 F6000 X99.957 Y110.139
M205 X8 Y8
G1 F1200 X101.416 Y111.598 E65.81819
M205 X10 Y10
G0 F6000 X101.981 Y111.598
M205 X8 Y8
G1 F1200 X100.523 Y110.139 E65.9211
M205 X10 Y10
G0 F6000 X101.088 Y110.139
M205 X8 Y8
G1 F1200 X102.547 Y111.598 E66.02404
M205 X10 Y10
G0 F6000 X103.113 Y111.598
M205 X8 Y8
G1 F1200 X101.654 Y110.139 E66.12698
M205 X10 Y10
G0 F6000 X102.22 Y110.139
M205 X8 Y8
G1 F1200 X103.678 Y111.598 E66.22988
M205 X10 Y10
G0 F6000 X104.244 Y111.598
M205 X8 Y8
G1 F1200 X102.785 Y110.139 E66.33282
M205 X10 Y10
